X:3
T:Spatzen-Galopp CGF 5- (GL02262)
S:Hanny Christen. Bd.II  St. Gallen II, GraubÃ¼nden, Tessin. S.333 (GL02262) orig. F,C,Bb
S:BÃ¼ndner und Engadiner TÃ¤nze. S.330-349. Ãœberliefert durch Giacomin Morell, Ardez.
O:Switzerland
%%MIDI program 21
R:Galopp
M:2/4
L:1/8
K:C%%MIDI gchordon
G, |: "C"EF/2E/2 DC | "G7"B,2D2 | A2B2 | ("C"dc)G2 | EF/2E/2 DC | "G7"B,2D2 | A2 G>B, |1 \
"C"C2zG, :|2
"C"C2zD |: [K:G] "G"G>D B,G | "D7"F2D2 | BA EF | "G"A/2G/2F/2G/2 D2 | G>D B,G | "D7"F2D2 | \
BA EF |1 "G".G2.G2 :|2
"G"G2"_>Teil A""G7".=F2 || [K:F] "F"C2 A>G | F4 | C2FF | "C7"E4 | \
C2 B>A | G4 | CE/2G/2 cc | "F"A2F2 | "C"c2 "F"=B>A |
"C"AG/2G/2 GG | "G7"AG FD | "C7"C2z2 \
|: "F"CA,/2C/2 FF | "C7"E2z2 | CB,/2C/2 GG | "F"F2z2 | A2GA | ("C7"c2B2) | E2 F/2E/2D/2E/2 | "F"F2"_Fine"z2 :| 
W:Parts: ABACD
% GL02262  
% Nov 6, 2016

